openframe-frontend-core/src/components/icons-v2/brand-logos/facebook-square.svg

<svg width="24" height="24" viewBox="0 0 24 24" fill="none" xmlns="http://www.w3.org/2000/svg">
<path d="M9.875 21V11.5005C9.875 9.49846 11.4985 7.875 13.5005 7.875H15.9995L16.1152 7.88086C16.6824 7.93857 17.1245 8.41759 17.1245 9C17.1245 9.58241 16.6824 10.0614 16.1152 10.1191L15.9995 10.125H13.5005C12.7411 10.125 12.125 10.7411 12.125 11.5005V12.8745H14L14.1157 12.8804C14.6825 12.9383 15.1248 13.4175 15.125 13.9995C15.125 14.5817 14.6827 15.0607 14.1157 15.1187L14 15.1245H12.125V21C12.125 21.6213 11.6213 22.125 11 22.125C10.3787 22.125 9.875 21.6213 9.875 21Z" fill="#888888"/>
<path d="M19.875 6C19.875 4.96447 19.0355 4.125 18 4.125H6C4.96447 4.125 4.125 4.96447 4.125 6V18C4.125 19.0355 4.96447 19.875 6 19.875H18C19.0355 19.875 19.875 19.0355 19.875 18V6ZM22.125 18C22.125 20.2782 20.2782 22.125 18 22.125H6C3.72183 22.125 1.875 20.2782 1.875 18V6C1.875 3.72183 3.72183 1.875 6 1.875H18C20.2782 1.875 22.125 3.72183 22.125 6V18Z" fill="#888888"/>
</svg>

<svg xmlns="http://www.w3.org/2000/svg" width="24" height="24" fill="none" viewBox="0 0 24 24">
  <path fill="#888" d="M9.875 21v-9.5a3.626 3.626 0 0 1 3.626-3.625h2.498l.116.006a1.125 1.125 0 0 1 0 2.238l-.115.006h-2.5c-.759 0-1.375.616-1.375 1.376v1.373H14l.116.006a1.126 1.126 0 0 1 0 2.239l-.116.005h-1.875V21a1.125 1.125 0 0 1-2.25 0Z"/>
  <path fill="#888" d="M19.875 6c0-1.036-.84-1.875-1.875-1.875H6c-1.036 0-1.875.84-1.875 1.875v12c0 1.035.84 1.875 1.875 1.875h12c1.035 0 1.875-.84 1.875-1.875V6Zm2.25 12A4.125 4.125 0 0 1 18 22.125H6A4.125 4.125 0 0 1 1.875 18V6A4.125 4.125 0 0 1 6 1.875h12A4.125 4.125 0 0 1 22.125 6v12Z"/>
</svg>
